X:1
T:The Hag With the Money
C:traditional, Ireland
Z:Laurenz Wiskott 2003-06-05
M:6/8
L:1/8
Q:3/8=120
K:G
|: "Am"Adc ABA | AGE "G"(G{A}G{F}G) | "Am"Adc ABA | "C"GEA "G"{GA}GED | 
"Am"Gdc A/B/cA | AGE "G"(G{A}G{F}G) | "Am"AGE "C"cde | "Am"dcA "G"GED :|
|: "A"AB^c "D"(d{e}d{c}d) | fed "C"edc | "A"AB^c "D"(d{e}d{c}d) | fba fed | 
"A"AB^c "D"d2e | fed "Em"efg | "Am"age "C"cde | "Am"dcA "G"{GA}GED :|
%
% version with intro and without chords to make a midi and practice with
%G3 G3 | GGG GGG 
%|: Adc ABA | AGE (G{A}G{F}G) | Adc ABA | GEA {GA}GED | 
%Gdc A/B/cA | AGE (G{A}G{F}G) | AGE cde | dcA GED :|
%|: AB^c (d{e}d{c}d) | fed edc | AB^c (d{e}d{c}d) | fba fed | 
%AB^c d2e | fed efg | age cde | dcA {GA}GED :| A3
%
W:
W:___________________________________________________________________________
W:Set in abc-notation by Laurenz Wiskott (http://itb.biologie.hu-berlin.de/~wiskott/).
W:Source: O'Neill's Music of Ireland (over 1,000 Fiddle Tunes), Miles Krassen, 
W:\    Oak Publications, New York, 1976, ISBN 0.8256.0173.8, p. 19.
W:Copyrights: none.  All information without any warranty.
